<?xml version="1.0" encoding="UTF-8"?>
<map version="1.10" tiledversion="1.12.1" orientation="orthogonal" renderorder="left-up" width="8" height="20" tilewidth="150" tileheight="150" infinite="0" nextlayerid="2" nextobjectid="1">
 <tileset firstgid="1" source="Standar.tsx"/>
 <layer id="1" name="Capa de patrones 1" width="8" height="20">
  <data encoding="csv">
0,0,0,2,0,0,0,0,
0,0,0,0,0,0,0,0,
0,0,12,0,0,0,0,0,
0,0,12,0,0,0,0,0,
0,0,12,0,0,0,0,0,
0,0,12,0,25,0,0,0,
0,0,12,0,0,0,0,0,
0,0,12,0,0,0,0,0,
0,0,12,0,0,0,0,0,
0,0,12,0,0,0,0,0,
0,0,12,0,0,0,0,0,
0,0,12,0,0,0,0,0,
0,0,12,0,0,0,0,0,
0,0,12,0,0,0,0,0,
0,0,12,0,0,0,0,0,
0,0,12,0,0,0,0,0,
0,0,0,0,0,0,0,0,
0,0,0,0,0,0,0,0,
0,0,0,0,0,0,0,0,
0,0,0,0,0,0,0,0
</data>
 </layer>
</map>
